www/assets/icons/mouse.svg

<svg width="24" height="24" viewBox="0 0 24 24" xmlns="http://www.w3.org/2000/svg" fill='currentColor'><path d="M13 1.03516V8.96516H20C20 4.88516 16.95 1.52516 13 1.03516ZM4 14.9652C4 19.3852 7.58 22.9652 12 22.9652C16.42 22.9652 20 19.3852 20 14.9652V10.9652H4V14.9652ZM11 1.03516C7.05 1.52516 4 4.88516 4 8.96516H11V1.03516Z"/></svg>

<svg xmlns="http://www.w3.org/2000/svg" width="24" height="24" viewBox="0 0 24 24" fill='currentColor'><path d="M13 1.035v7.93h7c0-4.08-3.05-7.44-7-7.93m-9 13.93c0 4.42 3.58 8 8 8s8-3.58 8-8v-4H4zm7-13.93c-3.95.49-7 3.85-7 7.93h7z"/></svg>
